X:1
T:Tröst mich, o Herr,
T:Georg Forster
T:Source : DDT 34---Leipzig---Breitkopf & Härtel---J.Wolf---1908. First print : Newe Deudsche Geistliche Gesenge---Wittemberg---G.Rhau---1544. Editor : André Vierendeels (05/08/17).
T:Notes : Original clefs : C1, C3, C3, F4 Original note values have been halved Editorial accidentals above the staff
T:Tröst mich, o Herr,
T:©
T:©
T:©
T:©
C:Georg Forster
Z:©
%%score [ 1 [ 2 3 ] 4 ]
L:1/8
Q:1/4=120
M:2/2
K:F
V:1 treble nm="Soprano" snm="S"
V:2 treble-8 nm="Tenor 1" snm="T 1"
V:3 treble-8 nm="Tenor 2" snm="T 2"
V:4 bass nm="Bass" snm="B"
V:1
 F8 | A4 F4 | c4 A2 c2- | cB A4 GF | G2 F2 F2 E2 | F3 G A2 B2- | BA A4 G2 | A8 | z2 A2 c2 c2- | %9
w: Tröst|mich, o|Herr, in mei-||* [ner Not, in|mei- * * *|* * ] ner|Not,|zu dir al-|
w: Weil|mir die|Stund hat bracht|_ _ _ _ _|* den Tod, [hat|bracht _ _ _|_ _ _ den|Tod]|und durch mich|
 cB A2 G2 c2 | c2 c2 d4 | c3 B A2 G2- | GF F4 E2 |1 F8 :|2 F4 z2 A2 || B2 G2 A4 | z2 F2 GFED | %17
w: * * * lein, zu|dir al- lein|setz _ _ ich|_ _ _ mein|Klag,|* Auf|dei- ner Trost,|stell ich, _ _ _|
w: _ _ _ selbst, und|durch mich selbst|kein _ _ Heil|_ _ _ ver-||mag. *|||
 C2 C2 c3 B | A3 G F2 D2 | E4 z2 c2 | c3 B AGFE | D4 C2 F2 | E2 A4 GF | E2 F4 E2 | F4 z2 c2 | %25
w: _ stell ich _|_ _ _ mein|Last und|b'ger _ _ _ _ _|_ al- lein|der Gna- * *|* * den|dein. Wend|
w: ||||||||
 c2 c2 A4 | z2 A2 d4- | d2 c2 B2 A2 | G4 c3 B/A/ | G2 A4 G2 | A8 | z4 G4 | A2 c2 B4 | G2 c3 B A2 | %34
w: ab dein G'richt|wend ab|_ _ dein Ge-|richt, so _ _|mich ver- nich-|tet.|Lasz|mich dein mind-|* * * sten|
w: |||||||||
 G6 F2 | E2 F4 E2 | F8 |] %37
w: Die- *|* * ner|sein.|
w: |||
V:2
 f8 | f4 d4 | c2 fe fg a2- | ag f4 ed | e2 f2 g4 | c2 d2 e2 f2- | f2 f2 d4 | z2 d2 f4 | f4 c3 d | %9
w: Tröst|mich, o|Herr, _ _ _ _ _|_ in mei- * *|* ner Not,|in _ _ mei-|* ner Not,|zu dir|al- lein _|
w: Weil|mir die|Stund _ _ _ _ _|_ hat bracht _ _|_ den Tod,|hat _ _ bracht|_ den Tod|und durch|mich selbst _|
 e2 f2 g2 a2- | agfe defg | a3 g f2 e2 | d4 c4 |1 A8 :|2 A4 z2 f2 || d2 e2 f2 c2 | d2 f2 edcB | %17
w: _ setz ich mein|_ _ _ _ _ _ _ _|[Klag, _ _ setz|ich mein]|Klag,|* Auf|dei- ner Trost stell|ich mein _ _ _ _|
w: _ kein Heil ver-|||||mag. *|||
 A2 F2 F4 | z2 G2 A2 F2 | G2 c2 c3 B | A3 G F2 f2 | f2 f2 f2 F2 | G2 A3 GAB | c2 d2 c4 | %24
w: _ _ Last,|auf dei- nen|Trost stell ich _|_ mein Last und|b'ger al- lein der|Gna- * * * *|* den dein.|
w: |||||||
 z2 c2 c2 c2 | A4 z2 a2 | a2 g2 f2 e2 | d4 g4- | g2 f2 e3 f | g2 c2 f2 ed | c8 | z4 e4 | f4 d4 | %33
w: Wend ab dein|G'richt, wend|ab _ _ dein|G'richt, so|_ _ mich _|_ ver- nich- * *|tet.|Lasz|mich dein|
w: |||||||||
 e4 f2 cd | _e6 d2 | c2 B2 c4 | c8 |] %37
w: mind- * sten _|Die- *|* * ner|sein.|
w: ||||
V:3
 z8 | z8 | F8 | A4 F4 | c8 | A2 B2 c2 d2- | dc c2 B4 | A8 | z4 A4 | c4 c4 | F4 B4 | A4 c3 B | %12
w: ||Tröst|mich, o|Herr,|in _ _ _|_ _ mei- ner|Not,|zu|dir al-|lein setz|ich _ _|
w: ||Weil|mir die|Stund|hat _ _ bracht|_ _ _ den|Tod|und|durch mich|selbst kein|Heil _ _|
 A2 B2 G4 |1 F8 :|2 F8 || z4 A4 | B4 G4 | A4 z2 c2 | d2 c4 B2 | c8 | z4 F4 | B4 A4 | c4 F4 | %23
w: _ _ mein|Klag,||Auf|dei- ner|Trost stell|ich _ mein|Last|und|b'ger al-|lein der|
w: _ _ ver-||mag.|||||||||
 G4 G4 | F8 | z4 c4 | d6 c2 | B2 A2 G4 | c8 | B2 A2 B4 | A8 | z4 c4 | A4 B4 | c4 F4 | B6 A2 | %35
w: Gna- den|dein.|Wend|ab _|dein Ge- richt,|so|mich ver- nich-|tet.|Lasz|mich dein|mind- sten|Die- *|
w: ||||||||||||
 G2 F2 G4 | F8 |] %37
w: * * ner|sein.|
w: ||
V:4
 z8 | z8 | F,8 | F,4 D,4 | C,8 | F,2 D,2 C,2 B,,2- | B,,2 F,2 G,4 | D,4 z2 D,2 | F,4 F,4 | %9
w: ||Tröst|mich, o|Herr,|in _ _ mei-|* * ner|Not, zu|dir al-|
w: ||Weil|mir die|Stund|nat _ _ brecht|_ den _|Tod und|durch mich|
 C,2 F,2 E,2 F,2- | F,E,D,C, B,,C,D,E, | F,6 C,2 | D,2 B,,2 C,4 |1 F,8 :|2 F,8 || z4 F,4 | %16
w: lein setz ich mein|_ _ _ _ _ _ _ _|Klag, setz|_ ich mein|Klag,||Auf|
w: selbst kein Heil ver-||mag, kein|Heil _ ver-||mag.||
 D,4 E,4 | F,2 C3 B,A,G, | F,2 E,2 D,4 | C,8 | z2 F,2 F,E,D,C, | B,,C,D,E, F,2 D,2 | C,2 F,4 E,D, | %23
w: dei- ner|Trost stell _ _ _|_ ich mein|Last|und b'ger _ _ _|al- * * * lein der|Gna- * * *|
w: |||||||
 C,2 B,,2 C,4 | F,8 | z2 F,2 F,2 F,2 | D,8 | G,6 F,2 | E,2 D,2 C,3 D, | E,2 F,2 D,2 E,2 | F,8 | %31
w: * * den|dein.|Wend ab dein|G'richt,|so _|_ _ mich _|_ ver- nich- *|tet.|
w: ||||||||
 z4 C,4 | F,4 G,4 | C,4 F,4 | _E,6 F,2 | C,2 D,2 C,4 | F,8 |] %37
w: Lasz|mich dein|mind- sten|Die- *|* * ner|sein.|
w: ||||||

